icons/solid/cake.svg

<svg width="24" height="24" viewBox="0 0 24 24" fill="none" xmlns="http://www.w3.org/2000/svg">
<path d="M17 3H17.01" stroke="currentColor" stroke-width="2" stroke-linecap="round" stroke-linejoin="round"/>
<path d="M12 3H12.01" stroke="currentColor" stroke-width="2" stroke-linecap="round" stroke-linejoin="round"/>
<path d="M7 3H7.01" stroke="currentColor" stroke-width="2" stroke-linecap="round" stroke-linejoin="round"/>
<path fill-rule="evenodd" clip-rule="evenodd" d="M21 19C21 20.1046 20.1046 21 19 21H5C3.89543 21 3 20.1046 3 19V17.8183C3.46216 17.9353 3.96255 18 4.5 18C6.01471 18 7.24678 17.5994 8.16726 16.8836C9.11678 17.5534 10.388 18 12 18C13.612 18 14.8832 17.5534 15.8327 16.8836C16.7532 17.5994 17.9853 18 19.5 18C20.0375 18 20.5378 17.9353 21 17.8183V19ZM21 12.9797C20.989 10.7799 19.2024 9 17 9H12H7C4.79762 9 3.01097 10.7799 3.00005 12.9797C3.00019 12.9804 3.00038 12.9814 3.00063 12.9827C3.00338 12.9974 3.01366 13.0524 3.04921 13.1402C3.10029 13.2664 3.18318 13.4083 3.29909 13.5371C3.49997 13.7603 3.84286 14 4.5 14C5.02854 14 5.3433 13.9122 5.51729 13.8368C5.68254 13.7652 5.76439 13.6867 5.81326 13.6256C5.93412 13.4745 6 13.2267 6 13C6 11.8954 6.89543 11 8 11C9.10457 11 10 11.8954 10 13C10 12.9843 10.0008 12.987 10.006 13.0041C10.0221 13.0576 10.0806 13.2522 10.2892 13.4608C10.5043 13.6759 10.9791 14 12 14C13.0209 14 13.4957 13.6759 13.7108 13.4608C13.9194 13.2522 13.9779 13.0576 13.994 13.0041C13.9992 12.987 14 12.9843 14 13C14 11.8954 14.8954 11 16 11C17.1046 11 18 11.8954 18 13C18 13.2267 18.0659 13.4745 18.1867 13.6256C18.2356 13.6867 18.3175 13.7652 18.4827 13.8368C18.6567 13.9122 18.9715 14 19.5 14C20.1571 14 20.5 13.7603 20.7009 13.5371C20.8168 13.4083 20.8997 13.2664 20.9508 13.1402C20.9863 13.0524 20.9966 12.9974 20.9994 12.9827C20.9996 12.9814 20.9998 12.9804 21 12.9797Z" fill="currentColor"/>
<path d="M3 17.8183L3.24558 16.8489C2.94654 16.7731 2.62927 16.8396 2.38583 17.0291C2.14238 17.2185 2 17.5098 2 17.8183H3ZM8.16726 16.8836L8.74372 16.0664C8.38407 15.8127 7.90082 15.824 7.55338 16.0942L8.16726 16.8836ZM15.8327 16.8836L16.4466 16.0942C16.0992 15.824 15.6159 15.8127 15.2563 16.0664L15.8327 16.8836ZM21 17.8183H22C22 17.5098 21.8576 17.2185 21.6142 17.0291C21.3707 16.8396 21.0535 16.7731 20.7544 16.8489L21 17.8183ZM21 12.9797L21.9786 13.1852C21.9931 13.116 22.0003 13.0455 21.9999 12.9748L21 12.9797ZM3.00005 12.9797L2.00006 12.9748C1.99971 13.0452 2.00681 13.1155 2.02122 13.1844L3.00005 12.9797ZM3.00063 12.9827L2.01767 13.1666L2.01767 13.1666L3.00063 12.9827ZM3.04921 13.1402L2.12226 13.5154L2.12226 13.5154L3.04921 13.1402ZM3.29909 13.5371L4.04238 12.8681L4.04238 12.8681L3.29909 13.5371ZM5.51729 13.8368L5.91489 14.7543L5.91489 14.7543L5.51729 13.8368ZM5.81326 13.6256L6.59413 14.2503L6.59413 14.2503L5.81326 13.6256ZM9 13C9 13.5523 9.44772 14 10 14C10.5523 14 11 13.5523 11 13H9ZM10.006 13.0041L9.04835 13.2921L9.04835 13.2921L10.006 13.0041ZM10.2892 13.4608L10.9963 12.7537L10.2892 13.4608ZM13.7108 13.4608L13.0037 12.7537L13.7108 13.4608ZM13.994 13.0041L14.9516 13.2921L14.9516 13.2921L13.994 13.0041ZM13 13C13 13.5523 13.4477 14 14 14C14.5523 14 15 13.5523 15 13H13ZM18.1867 13.6256L17.4059 14.2503L17.4059 14.2503L18.1867 13.6256ZM18.4827 13.8368L18.8803 12.9192L18.8803 12.9192L18.4827 13.8368ZM20.7009 13.5371L21.4442 14.206L21.4442 14.206L20.7009 13.5371ZM20.9508 13.1402L21.8777 13.5154V13.5154L20.9508 13.1402ZM20.9994 12.9827L21.9823 13.1666L21.9824 13.1663L20.9994 12.9827ZM13 6C13 5.44772 12.5523 5 12 5C11.4477 5 11 5.44772 11 6H13ZM11 9C11 9.55228 11.4477 10 12 10C12.5523 10 13 9.55228 13 9H11ZM6 9C6 9.55228 6.44772 10 7 10C7.55228 10 8 9.55228 8 9H6ZM8 6C8 5.44772 7.55228 5 7 5C6.44772 5 6 5.44772 6 6H8ZM16 9C16 9.55228 16.4477 10 17 10C17.5523 10 18 9.55228 18 9H16ZM18 6C18 5.44772 17.5523 5 17 5C16.4477 5 16 5.44772 16 6H18ZM19 22C20.6569 22 22 20.6569 22 19H20C20 19.5523 19.5523 20 19 20V22ZM5 22H19V20H5V22ZM2 19C2 20.6569 3.34315 22 5 22V20C4.44772 20 4 19.5523 4 19H2ZM2 17.8183V19H4V17.8183H2ZM2.75442 18.7876C3.29879 18.9255 3.88176 19 4.5 19V17C4.04334 17 3.62552 16.9451 3.24558 16.8489L2.75442 18.7876ZM4.5 19C6.19262 19 7.65301 18.5503 8.78114 17.673L7.55338 16.0942C6.84054 16.6485 5.8368 17 4.5 17V19ZM7.5908 17.7007C8.72028 18.4975 10.1959 19 12 19V17C10.5802 17 9.51329 16.6093 8.74372 16.0664L7.5908 17.7007ZM12 19C13.8041 19 15.2797 18.4975 16.4092 17.7007L15.2563 16.0664C14.4867 16.6093 13.4198 17 12 17V19ZM15.2189 17.673C16.347 18.5503 17.8074 19 19.5 19V17C18.1632 17 17.1595 16.6485 16.4466 16.0942L15.2189 17.673ZM19.5 19C20.1182 19 20.7012 18.9255 21.2456 18.7876L20.7544 16.8489C20.3745 16.9451 19.9567 17 19.5 17V19ZM22 19V17.8183H20V19H22ZM21.9999 12.9748C21.9863 10.2249 19.753 8 17 8V10C18.6518 10 19.9918 11.3349 20 12.9847L21.9999 12.9748ZM17 8H12V10H17V8ZM12 8H7V10H12V8ZM7 8C4.247 8 2.01371 10.2249 2.00006 12.9748L4.00004 12.9847C4.00822 11.3349 5.34824 10 7 10V8ZM3.98359 12.7989C3.98356 12.7988 3.98309 12.7963 3.9826 12.7937C3.98222 12.7917 3.98081 12.7843 3.97888 12.775L2.02122 13.1844C2.02022 13.1796 2.01946 13.1758 2.01901 13.1735C2.01854 13.1711 2.01819 13.1693 2.018 13.1683C2.01769 13.1667 2.01745 13.1654 2.01767 13.1666L3.98359 12.7989ZM3.97615 12.765C3.97313 12.7576 3.97383 12.7581 3.97633 12.7671C3.97757 12.7716 3.97906 12.7775 3.98065 12.7847C3.98144 12.7882 3.98216 12.7917 3.98279 12.7948C3.9834 12.7979 3.98385 12.8003 3.98359 12.7989L2.01767 13.1666C2.02883 13.2263 2.05495 13.3491 2.12226 13.5154L3.97615 12.765ZM4.04238 12.8681C4.02693 12.8509 4.01273 12.8318 4.00059 12.8121C3.98831 12.7922 3.98038 12.7755 3.97615 12.765L2.12226 13.5154C2.21425 13.7427 2.35729 13.9855 2.5558 14.206L4.04238 12.8681ZM4.5 13C4.2961 13 4.18996 12.9636 4.1427 12.9421C4.097 12.9213 4.06872 12.8974 4.04238 12.8681L2.55579 14.206C2.9383 14.631 3.54761 15 4.5 15V13ZM5.11968 12.9192C5.09288 12.9308 4.91755 13 4.5 13V15C5.13953 15 5.59372 14.8935 5.91489 14.7543L5.11968 12.9192ZM5.03239 13.0009C5.04045 12.9908 5.05104 12.9786 5.06385 12.9659C5.0766 12.9532 5.08909 12.9424 5.10056 12.9336C5.12417 12.9155 5.13441 12.9128 5.11968 12.9192L5.91489 14.7543C6.23177 14.617 6.44461 14.4372 6.59413 14.2503L5.03239 13.0009ZM5 13C5 13.0089 4.99931 13.0204 4.99752 13.0332C4.99572 13.046 4.99332 13.0564 4.99133 13.0633C4.98923 13.0706 4.98884 13.0696 4.99281 13.0614C4.99493 13.057 4.99875 13.0496 5.00483 13.0397C5.01087 13.0299 5.01983 13.0166 5.03239 13.0009L6.59413 14.2503C6.90216 13.8653 7 13.3687 7 13H5ZM8 10C6.34315 10 5 11.3431 5 13H7C7 12.4477 7.44772 12 8 12V10ZM11 13C11 11.3431 9.65685 10 8 10V12C8.55228 12 9 12.4477 9 13H11ZM10.9636 12.716C10.9631 12.7146 10.9618 12.71 10.9604 12.7054C10.9591 12.7013 10.956 12.6914 10.9521 12.6793C10.9493 12.6709 10.9396 12.6419 10.9248 12.6063C10.9175 12.5887 10.9026 12.5542 10.88 12.5126C10.8648 12.4848 10.8105 12.3851 10.7089 12.2834C10.6362 12.2105 10.2788 11.8808 9.74368 12.0232C9.27753 12.1472 9.11083 12.5299 9.0881 12.5806C9.04008 12.6877 9.02265 12.7784 9.01716 12.8079C9.00962 12.8485 9.00614 12.8814 9.0045 12.899C9.00123 12.9342 9.00053 12.9623 9.00031 12.9717C9.00002 12.9843 9 12.9948 9 13H11C11 13.0013 11 13.0084 10.9998 13.0182C10.9996 13.0248 10.999 13.0506 10.9959 13.0842C10.9944 13.101 10.991 13.1331 10.9835 13.1731C10.9782 13.2021 10.9608 13.2923 10.913 13.3991C10.8904 13.4495 10.7238 13.832 10.2579 13.956C9.7229 14.0983 9.36572 13.7688 9.2932 13.6961C9.19185 13.5945 9.13771 13.4952 9.12282 13.4678C9.1005 13.4268 9.08587 13.3928 9.07882 13.3759C9.06459 13.3418 9.05567 13.3147 9.05366 13.3087C9.04899 13.2946 9.04523 13.2818 9.04835 13.2921L10.9636 12.716ZM10.9963 12.7537C10.9702 12.7276 10.9614 12.7107 10.9609 12.7096C10.9603 12.7086 10.9611 12.71 10.9627 12.714C10.9634 12.716 10.9641 12.718 10.9647 12.7196C10.9651 12.721 10.9654 12.722 10.9636 12.716L9.04835 13.2921C9.08765 13.4228 9.20865 13.7944 9.58211 14.1679L10.9963 12.7537ZM12 13C11.5962 13 11.3495 12.9362 11.2098 12.881C11.0744 12.8275 11.0154 12.7727 10.9963 12.7537L9.58211 14.1679C10.0012 14.587 10.7381 15 12 15V13ZM13.0037 12.7537C12.9846 12.7727 12.9256 12.8275 12.7902 12.881C12.6505 12.9362 12.4038 13 12 13V15C13.2619 15 13.9988 14.587 14.4179 14.1679L13.0037 12.7537ZM13.0364 12.716C13.0346 12.722 13.0349 12.721 13.0353 12.7196C13.0359 12.718 13.0366 12.716 13.0373 12.714C13.0389 12.71 13.0397 12.7086 13.0391 12.7096C13.0386 12.7107 13.0298 12.7276 13.0037 12.7537L14.4179 14.1679C14.7914 13.7944 14.9123 13.4228 14.9516 13.2921L13.0364 12.716ZM15 13C15 12.9948 15 12.9843 14.9997 12.9717C14.9995 12.9623 14.9988 12.9342 14.9955 12.899C14.9939 12.8814 14.9904 12.8485 14.9828 12.8079C14.9773 12.7784 14.9599 12.6877 14.9119 12.5806C14.8892 12.5299 14.7225 12.1472 14.2563 12.0232C13.7212 11.8808 13.3638 12.2105 13.2911 12.2834C13.1895 12.3851 13.1352 12.4848 13.12 12.5126C13.0974 12.5542 13.0825 12.5887 13.0752 12.6063C13.0604 12.6419 13.0507 12.6709 13.0479 12.6793C13.044 12.6914 13.0409 12.7013 13.0396 12.7054C13.0382 12.71 13.0369 12.7146 13.0364 12.716L14.9516 13.2921C14.9548 13.2818 14.951 13.2946 14.9463 13.3087C14.9443 13.3147 14.9354 13.3418 14.9212 13.3759C14.9141 13.3928 14.8995 13.4268 14.8772 13.4678C14.8623 13.4952 14.8082 13.5945 14.7068 13.6961C14.6343 13.7688 14.2771 14.0983 13.7421 13.956C13.2762 13.832 13.1096 13.4495 13.087 13.3991C13.0392 13.2923 13.0218 13.2021 13.0165 13.1731C13.009 13.1331 13.0056 13.101 13.0041 13.0842C13.001 13.0506 13.0004 13.0248 13.0002 13.0182C13 13.0084 13 13.0013 13 13H15ZM16 10C14.3431 10 13 11.3431 13 13H15C15 12.4477 15.4477 12 16 12V10ZM19 13C19 11.3431 17.6569 10 16 10V12C16.5523 12 17 12.4477 17 13H19ZM18.9676 13.0009C18.9802 13.0166 18.9891 13.0299 18.9952 13.0397C19.0012 13.0496 19.0051 13.057 19.0072 13.0614C19.0112 13.0696 19.0108 13.0706 19.0087 13.0633C19.0067 13.0564 19.0043 13.046 19.0025 13.0332C19.0007 13.0204 19 13.0089 19 13H17C17 13.3687 17.0978 13.8653 17.4059 14.2503L18.9676 13.0009ZM18.8803 12.9192C18.8656 12.9128 18.8758 12.9155 18.8994 12.9336C18.9109 12.9424 18.9234 12.9532 18.9361 12.9659C18.949 12.9786 18.9595 12.9908 18.9676 13.0009L17.4059 14.2503C17.5554 14.4372 17.7682 14.617 18.0851 14.7543L18.8803 12.9192ZM19.5 13C19.0824 13 18.9071 12.9308 18.8803 12.9192L18.0851 14.7543C18.4063 14.8935 18.8605 15 19.5 15V13ZM19.9576 12.8681C19.9313 12.8974 19.903 12.9213 19.8573 12.9421C19.81 12.9636 19.7039 13 19.5 13V15C20.4524 15 21.0617 14.631 21.4442 14.206L19.9576 12.8681ZM20.0238 12.765C20.0196 12.7755 20.0117 12.7922 19.9994 12.8121C19.9873 12.8318 19.9731 12.8509 19.9576 12.8681L21.4442 14.206C21.6427 13.9855 21.7857 13.7427 21.8777 13.5154L20.0238 12.765ZM20.0164 12.7989C20.0162 12.8003 20.0166 12.7979 20.0172 12.7948C20.0178 12.7917 20.0186 12.7882 20.0193 12.7847C20.0209 12.7775 20.0224 12.7716 20.0237 12.7671C20.0262 12.7581 20.0269 12.7576 20.0238 12.765L21.8777 13.5154C21.9451 13.3491 21.9712 13.2263 21.9823 13.1666L20.0164 12.7989ZM20.0213 12.7743C20.0193 12.7838 20.0178 12.7914 20.0174 12.7935C20.0169 12.7963 20.0164 12.7989 20.0164 12.7991L21.9824 13.1663C21.9826 13.1653 21.9823 13.1667 21.982 13.1685C21.9818 13.1695 21.9814 13.1714 21.9809 13.1739C21.9804 13.1763 21.9797 13.1802 21.9786 13.1852L20.0213 12.7743ZM11 6V9H13V6H11ZM8 9V6H6V9H8ZM18 9V6H16V9H18Z" fill="currentColor"/>
</svg>

<svg fill="none" xmlns="http://www.w3.org/2000/svg" viewBox="0 0 24 24"><path d="M17 3h.01M12 3h.01M7 3h.01" stroke="currentColor" stroke-width="2" stroke-linecap="round" stroke-linejoin="round"/><path fill-rule="evenodd" clip-rule="evenodd" d="M21 19a2 2 0 01-2 2H5a2 2 0 01-2-2v-1.182c.462.117.963.182 1.5.182 1.515 0 2.747-.4 3.667-1.116C9.117 17.554 10.388 18 12 18s2.883-.447 3.833-1.116c.92.715 2.152 1.116 3.667 1.116.538 0 1.038-.065 1.5-.182V19zm0-6.02A4 4 0 0017 9H7a4 4 0 00-4 3.98v.003c.003.014.014.07.05.157.05.126.133.268.25.397.2.223.543.463 1.2.463.529 0 .843-.088 1.017-.163a.726.726 0 00.296-.211c.121-.151.187-.4.187-.626a2 2 0 114 0c0-.016 0-.013.006.004.016.054.075.248.283.457.215.215.69.539 1.711.539 1.02 0 1.496-.324 1.71-.54.21-.208.268-.402.284-.456.005-.017.006-.02.006-.004a2 2 0 114 0c0 .227.066.475.187.626.049.06.13.14.296.21.174.076.488.164 1.017.164.657 0 1-.24 1.2-.463.117-.129.2-.27.25-.397.036-.088.047-.143.05-.157v-.003z" fill="currentColor"/><path d="M3 17.818l.246-.97a1 1 0 00-1.246.97h1zm5.167-.934l.577-.818a1 1 0 00-1.19.028l.613.79zm7.666 0l.614-.79a1 1 0 00-1.19-.028l.576.818zm5.167.934h1a1 1 0 00-1.246-.97l.246.97zm0-4.838l.979.205a.998.998 0 00.02-.21L21 12.98zm-18 0l-1-.005a1 1 0 00.021.21L3 12.98zm0 .003l-.982.184.983-.184zm.05.157l-.928.375.927-.375zm.25.397l.742-.669-.743.67zm2.217.3l.398.917-.398-.917zm.296-.211l.781.624-.78-.624zM9 13a1 1 0 102 0H9zm1.006.004l-.958.288.958-.288zm.283.457l.707-.707-.707.707zm3.422 0l-.707-.707.707.707zm.283-.457l.958.288-.958-.288zM13 13a1 1 0 102 0h-2zm5.187.626l-.781.624.78-.624zm.296.21l.397-.917-.397.918zm2.218-.299l.743.669-.743-.669zm.25-.397l.927.375-.927-.375zm.048-.157l.983.184-.983-.184zM13 6a1 1 0 10-2 0h2zm-2 3a1 1 0 102 0h-2zM6 9a1 1 0 002 0H6zm2-3a1 1 0 00-2 0h2zm8 3a1 1 0 102 0h-2zm2-3a1 1 0 10-2 0h2zm1 16a3 3 0 003-3h-2a1 1 0 01-1 1v2zM5 22h14v-2H5v2zm-3-3a3 3 0 003 3v-2a1 1 0 01-1-1H2zm0-1.182V19h2v-1.182H2zm.754.97A7.092 7.092 0 004.5 19v-2c-.457 0-.874-.055-1.254-.151l-.492 1.939zM4.5 19c1.693 0 3.153-.45 4.281-1.327l-1.228-1.579C6.841 16.648 5.837 17 4.5 17v2zm3.09-1.3c1.13.797 2.606 1.3 4.41 1.3v-2c-1.42 0-2.487-.39-3.256-.934L7.59 17.701zM12 19c1.804 0 3.28-.503 4.41-1.3l-1.154-1.634C14.486 16.61 13.42 17 12 17v2zm3.219-1.327C16.347 18.55 17.807 19 19.5 19v-2c-1.337 0-2.34-.352-3.053-.906l-1.228 1.579zM19.5 19c.618 0 1.201-.075 1.746-.212l-.492-1.94c-.38.097-.797.152-1.254.152v2zm2.5 0v-1.182h-2V19h2zm0-6.025A5 5 0 0017 8v2a3 3 0 013 2.985l2-.01zM17 8h-5v2h5V8zm-5 0H7v2h5V8zM7 8a5 5 0 00-5 4.975l2 .01A3 3 0 017 10V8zm-3.016 4.799l-.001-.005-.004-.019-1.958.41a.947.947 0 01-.003-.017v-.001l1.966-.368zm-.008-.034c-.003-.007-.002-.007 0 .002a.356.356 0 01.007.028v.004l-1.965.368a1.8 1.8 0 00.104.348l1.854-.75zm.066.103a.393.393 0 01-.066-.103l-1.854.75c.092.228.235.47.434.691l1.486-1.338zM4.5 13a.862.862 0 01-.357-.058.285.285 0 01-.1-.074l-1.487 1.338c.382.425.992.794 1.944.794v-2zm.62-.08c-.027.01-.202.08-.62.08v2c.64 0 1.094-.107 1.415-.246L5.12 12.92zm-.088.08a.409.409 0 01.069-.066c.023-.018.033-.021.019-.015l.795 1.835a1.72 1.72 0 00.68-.504L5.031 13zM5 13a.245.245 0 01-.009.063c-.002.008-.002.007.002-.002a.39.39 0 01.04-.06l1.561 1.25C6.902 13.864 7 13.368 7 13H5zm3-3a3 3 0 00-3 3h2a1 1 0 011-1v-2zm3 3a3 3 0 00-3-3v2a1 1 0 011 1h2zm-.036-.284l-.004-.01c0-.005-.004-.015-.008-.027a1.087 1.087 0 00-.072-.166 1 1 0 00-1.136-.49c-.466.124-.633.507-.656.558A1.004 1.004 0 009 13h2v.018l-.004.066a.943.943 0 01-.083.315c-.023.05-.19.433-.655.557a1 1 0 01-1.18-.58l-.024-.067-.006-.017 1.916-.576zm.032.038a.194.194 0 01-.035-.044l.002.004.002.006-.001-.004-1.916.576c.04.13.16.502.534.876l1.414-1.414zM12 13c-.404 0-.65-.064-.79-.119a.609.609 0 01-.214-.127l-1.414 1.414c.42.419 1.156.832 2.418.832v-2zm1.004-.246a.609.609 0 01-.214.127c-.14.055-.386.119-.79.119v2c1.262 0 1.999-.413 2.418-.832l-1.414-1.414zm.032-.038v.004l.001-.006.002-.004s-.01.018-.035.044l1.414 1.414c.373-.374.494-.745.534-.876l-1.916-.576zM15 13v-.028a1.022 1.022 0 00-.088-.391c-.023-.051-.19-.434-.656-.558a1 1 0 00-.965.26 1 1 0 00-.243.396l-.008.026-.004.011 1.916.576-.006.017c-.002.006-.01.033-.025.067a1.003 1.003 0 01-.214.32 1 1 0 01-.965.26c-.466-.124-.632-.506-.655-.557a.996.996 0 01-.083-.315L13 13.018V13h2zm1-3a3 3 0 00-3 3h2a1 1 0 011-1v-2zm3 3a3 3 0 00-3-3v2a1 1 0 011 1h2zm-.032 0a.396.396 0 01.04.061A.223.223 0 0119 13h-2.001c0 .369.098.865.406 1.25L18.968 13zm-.088-.08c-.014-.007-.004-.005.02.014a.373.373 0 01.068.067l-1.562 1.25c.15.186.362.366.68.503l.794-1.835zm.62.08c-.418 0-.593-.07-.62-.08l-.795 1.834c.321.14.775.246 1.415.246v-2zm.458-.132a.284.284 0 01-.1.074.862.862 0 01-.358.058v2c.952 0 1.562-.369 1.944-.794l-1.486-1.338zm.066-.103a.387.387 0 01-.066.103l1.486 1.338c.199-.22.342-.463.434-.69l-1.854-.751zm-.008.034l.001-.004.002-.01a.298.298 0 01.005-.018c.002-.009.003-.01 0-.002l1.854.75c.067-.166.093-.289.104-.348l-1.966-.368zm.005-.025l-.004.02v.005l1.965.367v.002l-.001.006-.002.011-1.958-.41zM11 6v3h2V6h-2zM8 9V6H6v3h2zm10 0V6h-2v3h2z" fill="currentColor"/></svg>
